!!!COM: Haydn, Franz Joseph
!!!OTL: String Quartet in B-flat Major
!!!OPS: Opus 76
!!!ONM: No. 4
!!!OMD: Adagio
!!!OMV: 2
!!!SCT: H III:78
!!!SCA: Thematisch-bibliographisches Werkevererzeichnis (A. van Hoboken)
!!!YOR: Trautwein Edition
!!!ENC: Frances Bennion
!!!CDT: 1732/3/31/-1809/5/31/
!!!CNT: Oesterreich
!!!YEC: Copyright (c) 1994, 2000 Center for Computer Assisted Research in the Humanities
!!!YEM: Rights to all derivative editions reserved.
!!!YEM: Refer to licensing agreement for further details.
!!!YEN: United States of America
**kern	**kern	**kern	**kern
*k[b-e-a-]	*k[b-e-a-]	*k[b-e-a-]	*k[b-e-a-]
*E-:	*E-:	*E-:	*E-:
*clefF4	*clefC3	*clefF	*clefF
*M3/4	*M3/4	*M3/4	*M3/4
4E-	4G	2.B-	4e-
4F	4A-	.	4d
4E-	4G	.	4e-
=2	=2	=2	=2
4BB-	2.B-	4d	4f
2EE-	.	2e-	2g
=3	=3	=3	=3
4F	4A-	2.c	4f
4G	4B-	.	4e
4F	4A-	.	4f
=4	=4	=4	=4
4C	2.c	4e	4g
2FF	.	2f	2a-
=5	=5	=5	=5
2.r	2.r	4a-	4cc
.	.	4g	4b
.	.	4a-	4cc
=6	=6	=6	=6
2.r	4c	4e	4g
.	4A-	4f	[6..a-
.	4F	4c	.
.	.	.	48a-]
.	.	.	32b-
.	.	.	32cc
.	.	.	32b-
.	.	.	32a-
.	.	.	32g
.	.	.	32f
=7	=7	=7	=7
2.BB-	4G	4B-	4.e-
.	2F	2A-	.
.	.	.	8d
.	.	.	8a-
.	.	.	8d
=8	=8	=8	=8
4EE-	4G	4G	8e-
.	.	.	8g
2r	2r	2r	8b-
.	.	.	8dd
.	.	.	8ee-
.	.	.	8gg
=9	=9	=9	=9
2.r	4g	4ee-	[2.bb-
.	4f	4dd	.
.	4e-	4ee-	.
=10	=10	=10	=10
2.r	4d	4ff	4.bb-]
.	4e-	2gg	.
.	.	.	8bb
.	4e	.	8ccc
.	.	.	8bb-
=11	=11	=11	=11
4F	8f	4ff	4aa-
.	8c	.	.
4G	8B-	4ee	4gg
.	8c	.	.
8A-	8A-	4ff	8ff
8A	8A	.	8fff
=12	=12	=12	=12
4B-	4B-	4gg	4eee-
2B	2f	2aa-	2ddd
=13	=13	=13	=13
4c	4e-	4gg	4eee-
2GG	[2E-	2B-	4..d-
.	.	.	32c
.	.	.	32d-
=14	=14	=14	=14
4AA-	4E-]	4c	8c
.	.	.	8.cc
4A-	2r	2r	.
.	.	.	16b
.	.	.	16dd
.	.	.	16cc
4r	.	.	16ff
.	.	.	16ee-
.	.	.	16cc
.	.	.	16a-
=15	=15	=15	=15
2.BB-	4G	4e-	16g
.	.	.	16a-
.	.	.	16a
.	.	.	16b-
.	2F	2d	4..A-
.	.	.	32G
.	.	.	32A-
=16	=16	=16	=16
4EE-	8E-	8e-	4G
.	8e-	8g	.
2r	8e-	8g	2r
.	8e-	8g	.
.	8e-	8g	.
.	8e-	8g	.
=17	=17	=17	=17
2.r	8e-	8g	4cc
.	8e-	8g	.
.	8e-	8g	4b
.	8e-	8g	.
.	8e-	8g	4cc
.	8e-	8g	.
=18	=18	=18	=18
4G	4f	4b	4dd
4F#	[2e-	4cc	4.ee-
4G	.	4b	.
.	.	.	8dd
=19	=19	=19	=19
4A-	8e-]	4cc	4cc
.	8d	.	.
2A	4c	2cc 2f	4.ff
.	[4f	.	.
.	.	.	8ee-
=20	=20	=20	=20
4B-	8f]	8f 8dd	4dd
.	8b-	8dd	.
2r	8b-	8dd	2r
.	8b-	8dd	.
.	8b-	8dd	.
.	8b-	8dd	.
=21	=21	=21	=21
2.r	8b-	8dd	4ff
.	8b-	8dd	.
.	8b-	8dd	4ee
.	8b-	8dd	.
.	8b-	8dd	4ff
.	8b-	8dd	.
=22	=22	=22	=22
2.r	8b-	8dd	4ff#
.	8b-	8dd	.
.	8b-	8dd	4.gg
.	8b-	8dd	.
.	8b-	8dd	.
.	8b-	8dd	8ff
=23	=23	=23	=23
2r	4b-	4dd-	24ee
.	.	.	24gg
.	.	.	24bb-
.	.	.	24ddd-
.	.	.	24bb-
.	.	.	24gg
.	2a	2cc	24ee
.	.	.	24ff
.	.	.	24aa
.	.	.	24ccc
.	.	.	24aa
.	.	.	24ff
24E	.	.	4r
24F	.	.	.
24A	.	.	.
24c	.	.	.
24A	.	.	.
24F	.	.	.
=24	=24	=24	=24
2r	4g	4b-	24dd
.	.	.	24ee-
.	.	.	24gg
.	.	.	24bb-
.	.	.	24gg
.	.	.	24ee-
.	2f	2a	24cc#
.	.	.	24dd
.	.	.	24ff
.	.	.	24aa
.	.	.	24ff
.	.	.	24dd
24C#	.	.	4r
24D	.	.	.
24F	.	.	.
24A	.	.	.
24F	.	.	.
24D	.	.	.
=25	=25	=25	=25
2r	4e-	4g	24b
.	.	.	24cc
.	.	.	24ee-
.	.	.	24gg
.	.	.	24ee-
.	.	.	24cc
.	2d	2f	24a
.	.	.	24b-
.	.	.	24dd
.	.	.	24ff
.	.	.	24dd
.	.	.	24b-
24DD	.	.	[4bb-
24FF	.	.	.
24AA	.	.	.
24BB-	.	.	.
24FF	.	.	.
24DD	.	.	.
=26	=26	=26	=26
4EE-	4e-	4g	24bb-]
.	.	.	24ff#
.	.	.	24gg
.	.	.	24dd
.	.	.	24ee-
.	.	.	24b
2r	2r	2r	24cc
.	.	.	24f#
.	.	.	24g
.	.	.	24d
.	.	.	24e-
.	.	.	24B
.	.	.	24c
.	.	.	24e-
.	.	.	24g
.	.	.	24b
.	.	.	24cc
.	.	.	24gg
=27	=27	=27	=27
[2.F	2.B-	2.d	24e
.	.	.	24f
.	.	.	24f#
.	.	.	24g
.	.	.	24a-
.	.	.	24a
.	.	.	24b-
.	.	.	24f
.	.	.	24f#
.	.	.	24g
.	.	.	24a-
.	.	.	24a
.	.	.	24b-
.	.	.	24dd
.	.	.	24ff
.	.	.	24aa
.	.	.	24bb-
.	.	.	24ddd
=28	=28	=28	=28
4.F]	4.A	4.e- 4.c	4.fff
8F	8A	8e- 8c	8fff
8F	8A	8e- 8c	8fff
8F	8A	8c 8e-	8fff
=29	=29	=29	=29
[2.BB-	2.A	2.e- 2.c	2.fff
=30	=30	=30	=30
4.BB-]	4B-	4d 4B-	4b-
.	2r	2r	2r
8BB-	.	.	.
8BB-	.	.	.
8BB-	.	.	.
=31	=31	=31	=31
8BB-	4D	4B-	2r
8BB-	.	.	.
8BB-	4C	4A	.
8BB-	.	.	.
8BB-	4D	4B-	4b-
8BB-	.	.	.
=32	=32	=32	=32
8BB-	4E-	4c	4a
8BB-	.	.	.
8BB-	4F	4d	4b-
8BB-	.	.	.
8BB-	4G-	4e-	4cc
8BB-	.	.	.
=33	=33	=33	=33
[2.BB-	[2.F	2.d 2.A-	24dd
.	.	.	24ff
.	.	.	24aa-
.	.	.	24ccc
.	.	.	24bb-
.	.	.	24aa-
.	.	.	24gg
.	.	.	24ff
.	.	.	24ee-
.	.	.	24dd
.	.	.	24cc
.	.	.	24b-
.	.	.	24a-
.	.	.	24g
.	.	.	24a-
.	.	.	24cc
.	.	.	24a-
.	.	.	24f
=34	=34	=34	=34
4BB-]	4F]	4A-	4e-
2r	2r	2r	8d
.	.	.	8r
.	.	.	24A
.	.	.	24B-
.	.	.	24B
.	.	.	24c
.	.	.	24d-
.	.	.	24d
=35	=35	=35	=35
4GG-	4E-	[2.B-	4e-
4FF	4A-	.	4d
4EE-	4G-	.	4e-
=36	=36	=36	=36
4BB-	4D	2.B-]	4f
2EE-	2E-	.	2g-
=37	=37	=37	=37
4C-	4e-	[2.e-	4a-
4BB-	4d-	.	4g
4AA-	4c-	.	4a-
=38	=38	=38	=38
4EE-	4G	2.e-]	4b-
2AA-	2A-	.	2cc-
=39	=39	=39	=39
2.r	2.r	4a-	4cc-
.	.	4g	4b-
.	.	4a-	4cc-
=40	=40	=40	=40
4A-	4c-	4d	4f
4G-	4B-	2e-	[6..g-
4E-	4G-	.	.
.	.	.	48g-]
.	.	.	32cc-
.	.	.	32b-
.	.	.	32a-
.	.	.	32g-
.	.	.	32f
.	.	.	32e-
=41	=41	=41	=41
[2.BB-	4F	2A-	8.d
.	.	.	16f
.	4D	.	4a-
.	4E-	4A	8.g-
.	.	.	32f
.	.	.	32g-
=42	=42	=42	=42
4BB-]	8D	4B-	4f
.	8b-	.	.
2r	8b-	2r	2r
.	8b-	.	.
.	8b-	.	.
.	8b-	.	.
=43	=43	=43	=43
4EE-	8b-	8cc	2.r
.	8b-	8cc	.
4DD	8b-	8cc	.
.	8b-	8cc	.
4EE-	8b-	8cc	.
.	8b-	8cc	.
=44	=44	=44	=44
4EE	8b-	8g 8cc	24cc
.	.	.	24dd-
.	.	.	24cc
.	8b-	8cc 8g	24bb-
.	.	.	24gg
.	.	.	24ee
6..FF	8a-	8cc 8a-	24cc
.	.	.	24aa-
.	.	.	24ee
.	8a-	8cc 8a-	24ff
.	.	.	24b
.	.	.	24cc
.	8F	8cc 8a-	24g
24AA-	.	.	24a-
24C	.	.	24e
24AA-	8F	8cc 8a-	24f
24FF	.	.	24a-
24EE-	.	.	24cc
=45	=45	=45	=45
4DD	8a-	8b- 8f	24b-
.	.	.	24cc
.	.	.	24b-
.	8a-	8b- 8f	24aa-
.	.	.	24ff
.	.	.	24dd
6..EE-	8g	8b- 8g	24b-
.	.	.	24gg
.	.	.	24dd
.	8g	8g 8b-	24ee-
.	.	.	24a
.	.	.	24b-
.	8E-	8g	24f#
24GG	.	.	24g
24BB-	.	.	24d
24GG	8e-	8g	24e-
24EE-	.	.	24g
24DD	.	.	24b-
=46	=46	=46	=46
24CC	4e-	4g	2a-
24EE-	.	.	.
24GG	.	.	.
24AA-	.	.	.
24BB-	.	.	.
24C	.	.	.
24DD	2B-	4f	.
24FF	.	.	.
24AA-	.	.	.
24BB-	.	.	.
24C	.	.	.
24D	.	.	.
24EE-	.	4e-	4g
24GG	.	.	.
24BB-	.	.	.
24E-	.	.	.
24F	.	.	.
24G	.	.	.
=47	=47	=47	=47
[2.A-	2.c	[2.f	24f
.	.	.	24g
.	.	.	24e
.	.	.	24f
.	.	.	24g
.	.	.	24a-
.	.	.	24b
.	.	.	24cc
.	.	.	24ee
.	.	.	24ff
.	.	.	24gg
.	.	.	24aa-
.	.	.	24bb
.	.	.	24ccc
.	.	.	24bb-
.	.	.	24aa-
.	.	.	24gg
.	.	.	24ff
=48	=48	=48	=48
2.A-]	[2.B-	2.f]	4ee-
.	.	.	24dd
.	.	.	24ee-
.	.	.	24ff
.	.	.	24gg
.	.	.	24aa-
.	.	.	24bb-
.	.	.	24ccc
.	.	.	24ddd
.	.	.	24eee-
.	.	.	24fff
.	.	.	24ggg
.	.	.	24aaa-
=49	=49	=49	=49
2.G	2B-]	2e-	2bbb-
.	[4e-	4d-	4bbb
=50	=50	=50	=50
4A-	4e-]	4c	4cccc
2r	2r	2r	2r
=51	=51	=51	=51
2BB-	2F	2d	2A-
4r	4r	4r	16G
.	.	.	16A-
.	.	.	8r
=52	=52	=52	=52
4EE-	4r	2.r	4ee-
2r	4a-	.	4dd
.	4g	.	4ee-
=53	=53	=53	=53
2.r	4a-	4ee-	4ff
.	4b-	4dd	4gg
.	4cc	4ee-	4r
=54	=54	=54	=54
4r	4r	4ff	4ff
4B-	4d-	4gg	4ee
4A-	4c	4r	4ff
=55	=55	=55	=55
4B-	4d-	4r	4gg
4c	4e-	4g-	4aa-
[4d-	[4f	4f	4r
=56	=56	=56	=56
4d-]	2f]	4r	4aa
4d	.	4a-	2bb-
[4e-	[4g	4g	.
=57	=57	=57	=57
4e-]	4g]	4r	4bb
4e	2g	8.b-	4.ccc
.	.	16a-	.
4e	.	8g	.
.	.	8cc	8bb-
=58	=58	=58	=58
2e-	2.f	24cc	2aa
.	.	24ee-	.
.	.	24ff	.
.	.	24aa	.
.	.	24ff	.
.	.	24ee-	.
.	.	24cc	.
.	.	24ee-	.
.	.	24ff	.
.	.	24aa	.
.	.	24ff	.
.	.	24ee-	.
4d	.	24b-	4bb-
.	.	24dd	.
.	.	24ff	.
.	.	24bb-	.
.	.	24ff	.
.	.	24dd	.
=59	=59	=59	=59
2d-	2.e-	24b-	2gg
.	.	24dd-	.
.	.	24ee-	.
.	.	24gg	.
.	.	24ee-	.
.	.	24dd-	.
.	.	24b-	.
.	.	24dd-	.
.	.	24ee-	.
.	.	24gg	.
.	.	24ee-	.
.	.	24dd-	.
4c	.	24a-	4aa-
.	.	24cc	.
.	.	24ee-	.
.	.	24aa-	.
.	.	24ee-	.
.	.	24cc	.
=60	=60	=60	=60
2B-	2d	24aa-	2aa-
.	.	24ff	.
.	.	24dd	.
.	.	24b-	.
.	.	24a-	.
.	.	24f	.
.	.	24d	.
.	.	24f	.
.	.	24a-	.
.	.	24cc	.
.	.	24a-	.
.	.	24f	.
4c	4e-	24e-	4gg
.	.	24g	.
.	.	24b	.
.	.	24cc	.
.	.	24dd	.
.	.	24ee-	.
=61	=61	=61	=61
4A-	4f	4cc	24ff
.	.	.	24bb
.	.	.	24ccc
.	.	.	24gg
.	.	.	24aa-
.	.	.	24ee
2r	2r	2r	24ff
.	.	.	24b
.	.	.	24cc
.	.	.	24g
.	.	.	24a-
.	.	.	24e
.	.	.	24f
.	.	.	24cc
.	.	.	24b-
.	.	.	24a-
.	.	.	24g
.	.	.	24f
=62	=62	=62	=62
[2.BB-	2.G	2.e-	24e-
.	.	.	24b-
.	.	.	24a
.	.	.	24a-
.	.	.	24g
.	.	.	24f
.	.	.	24e-
.	.	.	24ee-
.	.	.	24dd
.	.	.	24cc
.	.	.	24b-
.	.	.	24a-
.	.	.	24g
.	.	.	24b-
.	.	.	24dd
.	.	.	24ee-
.	.	.	24gg
.	.	.	24bb-
=63	=63	=63	=63
4.BB-]	4.F	4.A- 4.d	4.bb-
8BB-	8F	8A- 8d	8bb-
8BB-	8F	8A- 8d	8bb-
8BB-	8F	8d 8A-	8bb-
=64	=64	=64	=64
2.BB-	2.F	2.A- 2.d	2.bb-
=65	=65	=65	=65
4C 4CC	4E-	4e- 4G	4e-
8r	8r	8r	8r
8B-	8d-	8g	8ee-
8B-	8d-	8g	8ee-
8B-	8d-	8g	8ee-
=66	=66	=66	=66
2.B-	2.d-	2.g	2.ee-
=67	=67	=67	=67
4c-	4c-	4a-	4A-
2r	2r	8r	8r
.	.	8a-	8cc-
.	.	8a-	8cc-
.	.	8a-	8cc-
=68	=68	=68	=68
4BB-	2.r	4g-	4b-
4r	.	4r	4r
4BB-	.	8A-	8d
.	.	8r	8r
=69	=69	=69	=69
2.EE-	4G	4B-	4e-
.	4A-	4c-	4d
.	4G	4B-	4e-
=70	=70	=70	=70
4DD	2.A-	2.c-	2.f
4CC#	.	.	.
4DD	.	.	.
=71	=71	=71	=71
2.EE-	4G	4B-	4e-
.	4A-	4c-	4d
.	4G	4B-	4e-
=72	=72	=72	=72
4DD	2.A-	24c-	2.f
.	.	24A-	.
.	.	24B-	.
.	.	24c-	.
.	.	24A-	.
.	.	24B-	.
4CC#	.	24c-	.
.	.	24A-	.
.	.	24B-	.
.	.	24c-	.
.	.	24A-	.
.	.	24B-	.
4DD	.	24c-	.
.	.	24A-	.
.	.	24B-	.
.	.	24c-	.
.	.	24A-	.
.	.	24B-	.
=73	=73	=73	=73
24EE-	4G	4B-	4e-
24DD	.	.	.
24EE-	.	.	.
24GG	.	.	.
24BB-	.	.	.
24GG	.	.	.
24EE-	4E-	4B-	4e- 4G
24DD	.	.	.
24EE-	.	.	.
24GG	.	.	.
24BB-	.	.	.
24GG	.	.	.
24EE-	4E-	4B-	4e- 4G
24DD	.	.	.
24EE-	.	.	.
24GG	.	.	.
24BB-	.	.	.
24GG	.	.	.
=74	=74	=74	=74
2.EE-	2.E-	2.B-	2.G 2.e-
==	==	==	==
*-	*-	*-	*-
!!!RWG1: This file contains only pitch and duration data.
!!!RWG2: Transposing instruments are not transposed.
!!!RWG3: Spines may have incompatible meters.
!!!RWG4: Durations of rests and tied notes may be interpreted.
!!!RWG: Key is interpreted using the Humdrum key tool.
!!!GTL: 6 Quartetti ("Erdödy")
!!!OPT: Sunrise
!!!AFT: stage1
!!!END: 1997/04/15
!!!KEY: 3912130522
!!!EMD: Converted from MuseData to Humdrum Dec 16, 2000, by Andreas Kornstaedt using muse2kern.
!!!EMD: Manual editing by Craig Sapp, Nov 2001
